img/svg/main-menu-icons/archive-ico.svg

<svg width="26" height="26" viewBox="0 0 26 26" fill="none" xmlns="http://www.w3.org/2000/svg">
<path d="M24.9844 16.3008C24.8874 16.3008 24.7939 16.3153 24.7051 16.3407C24.6162 16.3153 24.5228 16.3008 24.4258 16.3008H17.6211C17.293 16.3008 16.9853 16.4591 16.7947 16.7261L15.575 18.4336H10.2727L9.05295 16.7261C8.86232 16.4591 8.55426 16.3008 8.22636 16.3008H3.55469V11.1719C3.55469 10.6119 4.01033 10.1562 4.57031 10.1562H21.4297C21.9897 10.1562 22.4453 10.6119 22.4453 11.1719V12.2383C22.4453 12.7993 22.9 13.2539 23.4609 13.2539C24.0219 13.2539 24.4766 12.7993 24.4766 12.2383V11.1719C24.4766 10.2701 24.0824 9.4588 23.4578 8.90041C23.4592 8.87898 23.4609 8.85776 23.4609 8.83594V7.10938C23.4609 6.209 23.0682 5.39908 22.4453 4.84088V3.04688C22.4453 1.36673 21.0786 0 19.3984 0H6.60156C4.92142 0 3.55469 1.36673 3.55469 3.04688V4.84088C2.93182 5.39908 2.53906 6.209 2.53906 7.10938V8.63281C2.53906 8.71712 2.55037 8.79845 2.56981 8.8768C1.92929 9.43559 1.52344 10.257 1.52344 11.1719V16.3008H1.47266C1.39391 16.3008 1.31773 16.3105 1.24414 16.3276C1.17055 16.3105 1.09438 16.3008 1.01562 16.3008C0.454651 16.3008 0 16.7554 0 17.3164V21.9375C0 24.1776 1.82237 26 4.0625 26H21.9375C24.1776 26 26 24.1776 26 21.9375V17.3164C26 16.7554 25.5453 16.3008 24.9844 16.3008ZM5.58594 3.04688C5.58594 2.48689 6.04158 2.03125 6.60156 2.03125H19.3984C19.9584 2.03125 20.4141 2.48689 20.4141 3.04688V4.0625H5.58594V3.04688ZM4.57031 7.10938C4.57031 6.54939 5.02596 6.09375 5.58594 6.09375H20.4141C20.974 6.09375 21.4297 6.54939 21.4297 7.10938V8.125H4.57031V7.10938ZM21.9375 23.9688H4.0625C2.94254 23.9688 2.03125 23.0575 2.03125 21.9375V18.332H7.70387L8.92361 20.0396C9.11424 20.3065 9.42191 20.4648 9.75 20.4648H16.0977C16.4258 20.4648 16.7334 20.3065 16.924 20.0396L18.1438 18.332H23.9688V21.9375C23.9688 23.0575 23.0575 23.9688 21.9375 23.9688Z" fill="#E0E0E0"/>
</svg>

<svg width="26" height="26" fill="none" xmlns="http://www.w3.org/2000/svg"><path d="M24.984 16.3c-.097 0-.19.015-.279.04a1.014 1.014 0 00-.28-.04h-6.804c-.328 0-.636.16-.826.426l-1.22 1.708h-5.302l-1.22-1.708a1.016 1.016 0 00-.827-.425H3.555v-5.13c0-.56.455-1.015 1.015-1.015h16.86c.56 0 1.015.456 1.015 1.016v1.066a1.016 1.016 0 102.032 0v-1.066a3.04 3.04 0 00-1.02-2.272c.002-.021.004-.042.004-.064V7.109c0-.9-.393-1.71-1.016-2.268V3.047A3.05 3.05 0 0019.398 0H6.602a3.05 3.05 0 00-3.047 3.047V4.84a3.04 3.04 0 00-1.016 2.268v1.524c0 .084.011.165.03.244a3.04 3.04 0 00-1.046 2.295V16.3h-.05c-.08 0-.155.01-.229.027a1.016 1.016 0 00-1.244.99v4.62A4.067 4.067 0 004.063 26h17.875A4.067 4.067 0 0026 21.937v-4.62c0-.562-.455-1.016-1.016-1.016zM5.586 3.048c0-.56.456-1.016 1.016-1.016h12.796c.56 0 1.016.456 1.016 1.016v1.015H5.586V3.048zM4.57 7.109c0-.56.456-1.015 1.016-1.015h14.828c.56 0 1.016.455 1.016 1.015v1.016H4.57V7.109zm17.367 16.86H4.063a2.034 2.034 0 01-2.03-2.032v-3.605h5.672l1.22 1.708c.19.267.498.425.826.425h6.348c.328 0 .635-.159.826-.425l1.22-1.708h5.825v3.605c0 1.12-.912 2.032-2.032 2.032z" fill="#E0E0E0"/></svg>
